X: 30
T: Mason's Apron, The
Z: Paddy Squeezebox
S: https://thesession.org/tunes/74#setting49141
R: reel
M: 4/4
L: 1/8
K: Amaj
|:ed|"A"c2A2 ABAF|EFAB cABc|"Bm"d2B2 BcBA|"E7"GABc defg|
"A"a2A2 cBAF|EFAB cABc|"D"dcde fgaf|"E7"ecdB "A"A2:|
|:ed|"A"c2ec fcec|c2eA fedc|"Bm"d2fd gdfd|d2fB "E7"gfed|
"A"c2ec fcec|c2ec fedc "D"Bcde fgaf|"E7"ecdB "A"A2:|

